lib/svg/file-submodule.svg

<svg xmlns="http://www.w3.org/2000/svg" width="14" height="16" viewBox="0 0 14 16"><path d="M10 7H4v7h9c.55 0 1-.45 1-1V8h-4V7zM9 9H5V8h4v1zm4-5H7V3c0-.66-.31-1-1-1H1c-.55 0-1 .45-1 1v10c0 .55.45 1 1 1h2V7c0-.55.45-1 1-1h6c.55 0 1 .45 1 1h3V5c0-.55-.45-1-1-1zM6 4H1V3h5v1z"/></svg>

<?xml version="1.0" encoding="UTF-8" standalone="no"?>
<svg width="14px" height="16px" viewBox="0 0 14 16" version="1.1" xmlns="http://www.w3.org/2000/svg" xmlns:xlink="http://www.w3.org/1999/xlink">
    <!-- Generator: Sketch 3.8.3 (29802) - http://www.bohemiancoding.com/sketch -->
    <title>file-submodule</title>
    <desc>Created with Sketch.</desc>
    <defs></defs>
    <g id="Octicons" stroke="none" stroke-width="1" fill="none" fill-rule="evenodd">
        <g id="file-submodule" fill="#000000">
            <path d="M10,7 L4,7 L4,14 L13,14 C13.55,14 14,13.55 14,13 L14,8 L10,8 L10,7 L10,7 Z M9,9 L5,9 L5,8 L9,8 L9,9 L9,9 Z M13,4 L7,4 L7,3 C7,2.34 6.69,2 6,2 L1,2 C0.45,2 0,2.45 0,3 L0,13 C0,13.55 0.45,14 1,14 L3,14 L3,7 C3,6.45 3.45,6 4,6 L10,6 C10.55,6 11,6.45 11,7 L14,7 L14,5 C14,4.45 13.55,4 13,4 L13,4 Z M6,4 L1,4 L1,3 L6,3 L6,4 L6,4 Z" id="Shape"></path>
        </g>
    </g>
</svg>
